public/svgs/regular/circle-waveform-lines.svg

<svg xmlns="http://www.w3.org/2000/svg" viewBox="0 0 512 512"><!-- Font Awesome Pro 6.0.0-alpha2 by @fontawesome - https://fontawesome.com License - https://fontawesome.com/license (Commercial License) --><path d="M152 192C138.781 192 128 202.781 128 216V296C128 309.219 138.781 320 152 320S176 309.219 176 296V216C176 202.781 165.219 192 152 192ZM256 16C123.451 16 16 123.451 16 256S123.451 496 256 496S496 388.549 496 256S388.549 16 256 16ZM256 448C150.131 448 64 361.869 64 256S150.131 64 256 64S448 150.131 448 256S361.869 448 256 448ZM232 128C218.781 128 208 138.781 208 152V360C208 373.219 218.781 384 232 384S256 373.219 256 360V152C256 138.781 245.219 128 232 128ZM312 176C298.781 176 288 186.781 288 200V312C288 325.219 298.781 336 312 336S336 325.219 336 312V200C336 186.781 325.219 176 312 176ZM392 216C378.781 216 368 226.781 368 240V272C368 285.219 378.781 296 392 296S416 285.219 416 272V240C416 226.781 405.219 216 392 216Z"/></svg>

<svg xmlns="http://www.w3.org/2000/svg" viewBox="0 0 512 512"><!--! Font Awesome Pro 6.5.1 by @fontawesome - https://fontawesome.com License - https://fontawesome.com/license (Commercial License) Copyright 2023 Fonticons, Inc. --><path d="M256 48a208 208 0 1 1 0 416 208 208 0 1 1 0-416zm0 464A256 256 0 1 0 256 0a256 256 0 1 0 0 512zm0-368c0-13.3-10.7-24-24-24s-24 10.7-24 24V368c0 13.3 10.7 24 24 24s24-10.7 24-24V144zm80 56c0-13.3-10.7-24-24-24s-24 10.7-24 24V312c0 13.3 10.7 24 24 24s24-10.7 24-24V200zM176 216c0-13.3-10.7-24-24-24s-24 10.7-24 24v80c0 13.3 10.7 24 24 24s24-10.7 24-24V216zm240 24c0-13.3-10.7-24-24-24s-24 10.7-24 24v32c0 13.3 10.7 24 24 24s24-10.7 24-24V240z"/></svg>
